build/images/page-6/business-cases/business-cases-bg.svg

<svg width="1088" height="70" viewBox="0 0 1088 70" fill="none" xmlns="http://www.w3.org/2000/svg">
<path d="M46.5625 68.7232V44.8062" stroke="#00A79E" stroke-width="2.03453" stroke-miterlimit="10" stroke-linecap="round" stroke-linejoin="round"/>
<path d="M43.1843 37.8503C43.1843 41.8648 46.5633 45.1185 46.5633 45.1185C46.5633 45.1185 49.9424 41.8648 49.9424 37.8503C49.9424 33.8357 46.5633 30.582 46.5633 30.582C46.5633 30.582 43.1843 33.8357 43.1843 37.8503Z" stroke="#00A79E" stroke-width="2.03453" stroke-miterlimit="10" stroke-linecap="round" stroke-linejoin="round"/>
<path d="M51.0794 45.7486C47.7909 48.0313 47.0438 52.6761 47.0438 52.6761C47.0438 52.6761 51.6341 53.613 54.9283 51.3304C58.2167 49.0477 58.9639 44.4028 58.9639 44.4028C58.9639 44.4028 54.3679 43.4659 51.0794 45.7486Z" stroke="#00A79E" stroke-width="2.03453" stroke-miterlimit="10" stroke-linecap="round" stroke-linejoin="round"/>
<path d="M51.0794 56.691C47.7909 58.9737 47.0438 63.6185 47.0438 63.6185C47.0438 63.6185 51.6341 64.5554 54.9283 62.2728C58.2167 59.9901 58.9639 55.3452 58.9639 55.3452C58.9639 55.3452 54.3679 54.4083 51.0794 56.691Z" stroke="#00A79E" stroke-width="2.03453" stroke-miterlimit="10" stroke-linecap="round" stroke-linejoin="round"/>
<path d="M42.5269 45.7486C45.8154 48.0313 46.5625 52.6761 46.5625 52.6761C46.5625 52.6761 41.9722 53.613 38.6781 51.3304C35.3896 49.0477 34.6425 44.4028 34.6425 44.4028C34.6425 44.4028 39.2384 43.4659 42.5269 45.7486Z" stroke="#00A79E" stroke-width="2.03453" stroke-miterlimit="10" stroke-linecap="round" stroke-linejoin="round"/>
<path d="M42.5269 56.691C45.8154 58.9737 46.5625 63.6185 46.5625 63.6185C46.5625 63.6185 41.9722 64.5554 38.6781 62.2728C35.3896 59.9901 34.6425 55.3452 34.6425 55.3452C34.6425 55.3452 39.2384 54.4083 42.5269 56.691Z" stroke="#00A79E" stroke-width="2.03453" stroke-miterlimit="10" stroke-linecap="round" stroke-linejoin="round"/>
<path d="M757.92 68.7232V44.8062" stroke="#00A79E" stroke-width="2.03453" stroke-miterlimit="10" stroke-linecap="round" stroke-linejoin="round"/>
<path d="M754.541 37.8503C754.541 41.8648 757.92 45.1185 757.92 45.1185C757.92 45.1185 761.299 41.8648 761.299 37.8503C761.299 33.8357 757.92 30.582 757.92 30.582C757.92 30.582 754.541 33.8357 754.541 37.8503Z" stroke="#00A79E" stroke-width="2.03453" stroke-miterlimit="10" stroke-linecap="round" stroke-linejoin="round"/>
<path d="M762.437 45.7486C759.148 48.0313 758.401 52.6761 758.401 52.6761C758.401 52.6761 762.992 53.613 766.286 51.3304C769.574 49.0477 770.321 44.4028 770.321 44.4028C770.321 44.4028 765.725 43.4659 762.437 45.7486Z" stroke="#00A79E" stroke-width="2.03453" stroke-miterlimit="10" stroke-linecap="round" stroke-linejoin="round"/>
<path d="M762.437 56.691C759.148 58.9737 758.401 63.6185 758.401 63.6185C758.401 63.6185 762.992 64.5554 766.286 62.2728C769.574 59.9901 770.321 55.3452 770.321 55.3452C770.321 55.3452 765.725 54.4083 762.437 56.691Z" stroke="#00A79E" stroke-width="2.03453" stroke-miterlimit="10" stroke-linecap="round" stroke-linejoin="round"/>
<path d="M753.884 45.7486C757.173 48.0313 757.92 52.6761 757.92 52.6761C757.92 52.6761 753.33 53.613 750.035 51.3304C746.747 49.0477 746 44.4028 746 44.4028C746 44.4028 750.596 43.4659 753.884 45.7486Z" stroke="#00A79E" stroke-width="2.03453" stroke-miterlimit="10" stroke-linecap="round" stroke-linejoin="round"/>
<path d="M753.884 56.691C757.173 58.9737 757.92 63.6185 757.92 63.6185C757.92 63.6185 753.33 64.5554 750.035 62.2728C746.747 59.9901 746 55.3452 746 55.3452C746 55.3452 750.596 54.4083 753.884 56.691Z" stroke="#00A79E" stroke-width="2.03453" stroke-miterlimit="10" stroke-linecap="round" stroke-linejoin="round"/>
<path opacity="0.25" d="M396.303 68.5014C396.303 68.5014 421.469 63.0933 411.634 17.6378C411.634 17.6378 384.116 33.9922 396.303 68.5014Z" fill="#00A99E"/>
<path d="M397.264 66.4832C397.264 66.4832 417.561 68.4991 422.535 32.1145C422.526 32.119 397.5 37.7282 397.264 66.4832Z" stroke="#00A99E" stroke-width="2" stroke-miterlimit="10" stroke-linecap="round" stroke-linejoin="round"/>
<path d="M398.119 65.5372C398.769 64.561 418.31 37.0596 418.31 37.0596" stroke="#00A99E" stroke-width="2" stroke-miterlimit="10" stroke-linecap="round" stroke-linejoin="round"/>
<path d="M414.123 37.8792L413.839 43.3709" stroke="#00A99E" stroke-width="2" stroke-miterlimit="10" stroke-linecap="round" stroke-linejoin="round"/>
<path d="M417.267 43.6139L412.051 45.8486" stroke="#00A99E" stroke-width="2" stroke-miterlimit="10" stroke-linecap="round" stroke-linejoin="round"/>
<path d="M413.991 48.3898L408.774 50.6245" stroke="#00A99E" stroke-width="2" stroke-miterlimit="10" stroke-linecap="round" stroke-linejoin="round"/>
<path d="M410.714 53.1656L405.493 55.3911" stroke="#00A99E" stroke-width="2" stroke-miterlimit="10" stroke-linecap="round" stroke-linejoin="round"/>
<path d="M410.552 42.7805L410.259 48.277" stroke="#00A99E" stroke-width="2" stroke-miterlimit="10" stroke-linecap="round" stroke-linejoin="round"/>
<path d="M407.435 47.3196L407.142 52.8157" stroke="#00A99E" stroke-width="2" stroke-miterlimit="10" stroke-linecap="round" stroke-linejoin="round"/>
<path d="M11.1924 68.4055V53.6191" stroke="#00A79E" stroke-width="2.03453" stroke-miterlimit="10" stroke-linecap="round" stroke-linejoin="round"/>
<path d="M343 68.4055V53.6191" stroke="#00A79E" stroke-width="2.03453" stroke-miterlimit="10" stroke-linecap="round" stroke-linejoin="round"/>
<path d="M686 68.4055V53.6191" stroke="#00A79E" stroke-width="2.03453" stroke-miterlimit="10" stroke-linecap="round" stroke-linejoin="round"/>
<path d="M720 68.7275L720 58.7275" stroke="#00A79E" stroke-width="2.03453" stroke-miterlimit="10" stroke-linecap="round" stroke-linejoin="round"/>
<path d="M808 68.7275L808 58.7275" stroke="#00A79E" stroke-width="2.03453" stroke-miterlimit="10" stroke-linecap="round" stroke-linejoin="round"/>
<path d="M931 68.7275L931 58.7275" stroke="#00A79E" stroke-width="2.03453" stroke-miterlimit="10" stroke-linecap="round" stroke-linejoin="round"/>
<path d="M581 68.4055V53.6191" stroke="#00A79E" stroke-width="2.03453" stroke-miterlimit="10" stroke-linecap="round" stroke-linejoin="round"/>
<path d="M260 68.4055V53.6191" stroke="#00A79E" stroke-width="2.03453" stroke-miterlimit="10" stroke-linecap="round" stroke-linejoin="round"/>
<path d="M280 68.0876V58.9512" stroke="#00A79E" stroke-width="2.03453" stroke-miterlimit="10" stroke-linecap="round" stroke-linejoin="round"/>
<path d="M518 68.0876V58.9512" stroke="#00A79E" stroke-width="2.03453" stroke-miterlimit="10" stroke-linecap="round" stroke-linejoin="round"/>
<path d="M365 68.0876V58.9512" stroke="#00A79E" stroke-width="2.03453" stroke-miterlimit="10" stroke-linecap="round" stroke-linejoin="round"/>
<path d="M21.1426 68.4054V61.0122" stroke="#00A79E" stroke-width="2.03453" stroke-miterlimit="10" stroke-linecap="round" stroke-linejoin="round"/>
<path opacity="0.56" d="M147.2 68.2065C146.43 66.5541 146 64.7143 146 62.7723C146 55.6688 151.739 49.911 158.82 49.911C160.897 49.911 162.856 50.4106 164.593 51.2908C167.231 44.9027 173.496 40.4111 180.815 40.4111C187.652 40.4111 193.567 44.3348 196.471 50.0529C197.093 49.9621 197.727 49.911 198.372 49.911C205.453 49.911 211.192 55.6688 211.192 62.7723C211.192 64.7143 210.762 66.5541 209.992 68.2065H147.2Z" fill="#00A79E"/>
<path d="M1.99997 68.6675L1086 68.6675" stroke="#00A79E" stroke-width="2.03453" stroke-miterlimit="10" stroke-linecap="round" stroke-linejoin="round"/>
<path d="M119.36 26.7275V37.4475" stroke="#00A99E" stroke-width="2" stroke-miterlimit="10" stroke-linecap="round" stroke-linejoin="round"/>
<path d="M124.72 32.0874H114" stroke="#00A99E" stroke-width="2" stroke-miterlimit="10" stroke-linecap="round" stroke-linejoin="round"/>
<path d="M454.36 34.7275V45.4475" stroke="#00A99E" stroke-width="2" stroke-miterlimit="10" stroke-linecap="round" stroke-linejoin="round"/>
<path d="M459.72 40.0874H449" stroke="#00A99E" stroke-width="2" stroke-miterlimit="10" stroke-linecap="round" stroke-linejoin="round"/>
<path d="M275.36 1.72754V12.4475" stroke="#00A99E" stroke-width="2" stroke-miterlimit="10" stroke-linecap="round" stroke-linejoin="round"/>
<path d="M280.72 7.0874H270" stroke="#00A99E" stroke-width="2" stroke-miterlimit="10" stroke-linecap="round" stroke-linejoin="round"/>
<path d="M1068.36 37.6675V48.3875" stroke="#00A99E" stroke-width="2" stroke-miterlimit="10" stroke-linecap="round" stroke-linejoin="round"/>
<path d="M1073.72 43.0273H1063" stroke="#00A99E" stroke-width="2" stroke-miterlimit="10" stroke-linecap="round" stroke-linejoin="round"/>
<path d="M925.36 17.6675V28.3875" stroke="#00A99E" stroke-width="2" stroke-miterlimit="10" stroke-linecap="round" stroke-linejoin="round"/>
<path d="M930.72 23.0273H920" stroke="#00A99E" stroke-width="2" stroke-miterlimit="10" stroke-linecap="round" stroke-linejoin="round"/>
<path d="M668.36 21.6675V32.3875" stroke="#00A99E" stroke-width="2" stroke-miterlimit="10" stroke-linecap="round" stroke-linejoin="round"/>
<path d="M673.72 27.0273H663" stroke="#00A99E" stroke-width="2" stroke-miterlimit="10" stroke-linecap="round" stroke-linejoin="round"/>
<path d="M860.66 42.7773V67.8973" stroke="#00A99E" stroke-width="2" stroke-miterlimit="10" stroke-linecap="round" stroke-linejoin="round"/>
<path d="M860.47 54.6075C866.252 54.6075 870.94 49.9199 870.94 44.1375C870.94 38.3551 866.252 33.6675 860.47 33.6675C854.688 33.6675 850 38.3551 850 44.1375C850 49.9199 854.688 54.6075 860.47 54.6075Z" stroke="#00A99E" stroke-width="2" stroke-miterlimit="10" stroke-linecap="round" stroke-linejoin="round"/>
<path d="M610.958 67.2037V43.2866" stroke="#00A79E" stroke-width="2.03453" stroke-miterlimit="10" stroke-linecap="round" stroke-linejoin="round"/>
<path d="M607.569 36.3303C607.569 40.3448 610.959 43.5985 610.959 43.5985C610.959 43.5985 614.349 40.3448 614.349 36.3303C614.349 32.3157 610.959 29.062 610.959 29.062C610.959 29.062 607.569 32.3157 607.569 36.3303Z" stroke="#00A79E" stroke-width="2.03453" stroke-miterlimit="10" stroke-linecap="round" stroke-linejoin="round"/>
<path d="M615.49 44.229C612.19 46.5117 611.441 51.1566 611.441 51.1566C611.441 51.1566 616.046 52.0935 619.351 49.8108C622.65 47.5282 623.399 42.8833 623.399 42.8833C623.399 42.8833 618.789 41.9464 615.49 44.229Z" stroke="#00A79E" stroke-width="2.03453" stroke-miterlimit="10" stroke-linecap="round" stroke-linejoin="round"/>
<path d="M615.49 55.1709C612.19 57.4536 611.441 62.0985 611.441 62.0985C611.441 62.0985 616.046 63.0354 619.351 60.7527C622.65 58.4701 623.399 53.8252 623.399 53.8252C623.399 53.8252 618.789 52.8883 615.49 55.1709Z" stroke="#00A79E" stroke-width="2.03453" stroke-miterlimit="10" stroke-linecap="round" stroke-linejoin="round"/>
<path d="M606.909 44.229C610.208 46.5117 610.958 51.1566 610.958 51.1566C610.958 51.1566 606.353 52.0935 603.048 49.8108C599.749 47.5282 598.999 42.8833 598.999 42.8833C598.999 42.8833 603.61 41.9464 606.909 44.229Z" stroke="#00A79E" stroke-width="2.03453" stroke-miterlimit="10" stroke-linecap="round" stroke-linejoin="round"/>
<path d="M606.909 55.1709C610.208 57.4536 610.958 62.0985 610.958 62.0985C610.958 62.0985 606.353 63.0354 603.048 60.7527C599.749 58.4701 598.999 53.8252 598.999 53.8252C598.999 53.8252 603.61 52.8883 606.909 55.1709Z" stroke="#00A79E" stroke-width="2.03453" stroke-miterlimit="10" stroke-linecap="round" stroke-linejoin="round"/>
<path d="M493.959 67.2037V43.2866" stroke="#00A79E" stroke-width="2.03453" stroke-miterlimit="10" stroke-linecap="round" stroke-linejoin="round"/>
<path d="M490.569 36.3303C490.569 40.3448 493.959 43.5985 493.959 43.5985C493.959 43.5985 497.349 40.3448 497.349 36.3303C497.349 32.3157 493.959 29.062 493.959 29.062C493.959 29.062 490.569 32.3157 490.569 36.3303Z" stroke="#00A79E" stroke-width="2.03453" stroke-miterlimit="10" stroke-linecap="round" stroke-linejoin="round"/>
<path d="M489.91 44.229C493.209 46.5117 493.959 51.1566 493.959 51.1566C493.959 51.1566 489.354 52.0935 486.049 49.8108C482.75 47.5282 482 42.8833 482 42.8833C482 42.8833 486.611 41.9464 489.91 44.229Z" stroke="#00A79E" stroke-width="2.03453" stroke-miterlimit="10" stroke-linecap="round" stroke-linejoin="round"/>
<g clip-path="url(#clip0)">
<path d="M1022.14 51.4675C1015.46 51.4675 1010 46.0075 1010 39.3275V15.8075C1010 9.12748 1015.46 3.66748 1022.14 3.66748C1028.82 3.66748 1034.28 9.12748 1034.28 15.8075V39.3175C1034.28 46.0075 1028.82 51.4675 1022.14 51.4675Z" stroke="#00A99E" stroke-width="2" stroke-miterlimit="10" stroke-linecap="round" stroke-linejoin="round"/>
<path d="M1022.33 66.4975V36.1075V27.5675L1028.5 22.9375" stroke="#00A99E" stroke-width="2" stroke-miterlimit="10" stroke-linecap="round" stroke-linejoin="round"/>
<path d="M1028.5 31.4175L1022.33 36.2975" stroke="#00A99E" stroke-width="2" stroke-miterlimit="10" stroke-linecap="round" stroke-linejoin="round"/>
<path d="M1028.5 39.9077L1022.33 44.7777" stroke="#00A99E" stroke-width="2" stroke-miterlimit="10" stroke-linecap="round" stroke-linejoin="round"/>
<path d="M1016.16 31.4175L1022.33 36.2975" stroke="#00A99E" stroke-width="2" stroke-miterlimit="10" stroke-linecap="round" stroke-linejoin="round"/>
<path d="M1016.16 39.9077L1022.33 44.7777" stroke="#00A99E" stroke-width="2" stroke-miterlimit="10" stroke-linecap="round" stroke-linejoin="round"/>
<path d="M1022.33 27.5674V18.3174" stroke="#00A99E" stroke-width="2" stroke-miterlimit="10" stroke-linecap="round" stroke-linejoin="round"/>
<path d="M976.05 55.2872C971.07 55.2872 967 51.2172 967 46.2372V28.7072C967 23.7272 971.07 19.6572 976.05 19.6572C981.03 19.6572 985.1 23.7272 985.1 28.7072V46.2372C985.11 51.2172 981.03 55.2872 976.05 55.2872Z" stroke="#00A99E" stroke-width="2" stroke-miterlimit="10" stroke-linecap="round" stroke-linejoin="round"/>
<path d="M976.2 66.4971V43.8371V37.4671L980.8 34.0171" stroke="#00A99E" stroke-width="2" stroke-miterlimit="10" stroke-linecap="round" stroke-linejoin="round"/>
<path d="M980.8 40.3472L976.2 43.9872" stroke="#00A99E" stroke-width="2" stroke-miterlimit="10" stroke-linecap="round" stroke-linejoin="round"/>
<path d="M980.8 46.667L976.2 50.307" stroke="#00A99E" stroke-width="2" stroke-miterlimit="10" stroke-linecap="round" stroke-linejoin="round"/>
<path d="M971.6 40.3472L976.2 43.9872" stroke="#00A99E" stroke-width="2" stroke-miterlimit="10" stroke-linecap="round" stroke-linejoin="round"/>
<path d="M971.6 46.667L976.2 50.307" stroke="#00A99E" stroke-width="2" stroke-miterlimit="10" stroke-linecap="round" stroke-linejoin="round"/>
<path d="M976.2 37.4671V30.5771" stroke="#00A99E" stroke-width="2" stroke-miterlimit="10" stroke-linecap="round" stroke-linejoin="round"/>
</g>
<defs>
<clipPath id="clip0">
<rect width="105.82" height="64.83" fill="white" transform="translate(938 2.66748)"/>
</clipPath>
</defs>
</svg>

<svg width="1088" height="70" viewBox="0 0 1088 70" fill="none" xmlns="http://www.w3.org/2000/svg"><path d="M46.563 68.723V44.806m-3.379-6.956c0 4.015 3.38 7.268 3.38 7.268s3.378-3.253 3.378-7.268c0-4.014-3.379-7.268-3.379-7.268s-3.379 3.254-3.379 7.268zm7.896 7.899c-3.29 2.282-4.036 6.927-4.036 6.927s4.59.937 7.884-1.346c3.289-2.282 4.036-6.927 4.036-6.927s-4.596-.937-7.885 1.346zm0 10.942c-3.29 2.283-4.036 6.927-4.036 6.927s4.59.937 7.884-1.345c3.289-2.283 4.036-6.928 4.036-6.928s-4.596-.937-7.885 1.346zm-8.553-10.942c3.288 2.282 4.035 6.927 4.035 6.927s-4.59.937-7.884-1.346c-3.288-2.282-4.035-6.927-4.035-6.927s4.595-.937 7.884 1.346zm0 10.942c3.288 2.283 4.035 6.927 4.035 6.927s-4.59.937-7.884-1.345c-3.288-2.283-4.035-6.928-4.035-6.928s4.595-.937 7.884 1.346zM757.92 68.723V44.806m-3.379-6.956c0 4.015 3.379 7.268 3.379 7.268s3.379-3.253 3.379-7.268c0-4.014-3.379-7.268-3.379-7.268s-3.379 3.254-3.379 7.268zm7.896 7.899c-3.289 2.282-4.036 6.927-4.036 6.927s4.591.937 7.885-1.346c3.288-2.282 4.035-6.927 4.035-6.927s-4.596-.937-7.884 1.346zm0 10.942c-3.289 2.283-4.036 6.927-4.036 6.927s4.591.937 7.885-1.345c3.288-2.283 4.035-6.928 4.035-6.928s-4.596-.937-7.884 1.346zm-8.553-10.942c3.289 2.282 4.036 6.927 4.036 6.927s-4.59.937-7.885-1.346c-3.288-2.282-4.035-6.927-4.035-6.927s4.596-.937 7.884 1.346zm0 10.942c3.289 2.283 4.036 6.927 4.036 6.927s-4.59.937-7.885-1.345C746.747 59.99 746 55.345 746 55.345s4.596-.937 7.884 1.346z" stroke="#00A79E" stroke-width="2.035" stroke-miterlimit="10" stroke-linecap="round" stroke-linejoin="round"/><path opacity=".25" d="M396.303 68.501s25.166-5.408 15.331-50.863c0 0-27.518 16.354-15.331 50.863z" fill="#00A99E"/><path d="M397.264 66.483s20.297 2.016 25.271-34.369c-.009.005-25.035 5.614-25.271 34.37zm.855-.946c.65-.976 20.191-28.477 20.191-28.477m-4.187.82l-.284 5.49m3.428.244l-5.216 2.235m1.94 2.541l-5.217 2.234m1.94 2.542l-5.221 2.225m5.059-12.611l-.293 5.497m-2.824-.957l-.293 5.496" stroke="#00A99E" stroke-width="2" stroke-miterlimit="10" stroke-linecap="round" stroke-linejoin="round"/><path d="M11.192 68.406V53.619M343 68.406V53.619m343 14.787V53.619m34 15.109v-10m88 10v-10m123 10v-10m-350 9.678V53.619M260 68.406V53.619m20 14.469V58.95m238 9.138V58.95m-153 9.138V58.95M21.143 68.405v-7.393" stroke="#00A79E" stroke-width="2.035" stroke-miterlimit="10" stroke-linecap="round" stroke-linejoin="round"/><path opacity=".56" d="M147.2 68.207a12.827 12.827 0 01-1.2-5.435c0-7.103 5.739-12.861 12.82-12.861 2.077 0 4.036.5 5.773 1.38 2.638-6.388 8.903-10.88 16.222-10.88 6.837 0 12.752 3.924 15.656 9.642a13.26 13.26 0 011.901-.142c7.081 0 12.82 5.758 12.82 12.861 0 1.942-.43 3.782-1.2 5.435H147.2z" fill="#00A79E"/><path d="M2 68.668h1084" stroke="#00A79E" stroke-width="2.035" stroke-miterlimit="10" stroke-linecap="round" stroke-linejoin="round"/><path d="M119.36 26.727v10.72m5.36-5.36H114m340.36 2.64v10.72m5.36-5.36H449M275.36 1.728v10.72m5.36-5.361H270m798.36 30.58v10.72m5.36-5.36H1063M925.36 17.668v10.72m5.36-5.361H920m-251.64-1.359v10.72m5.36-5.361H663m197.66 15.75v25.12m-.19-13.289c5.782 0 10.47-4.688 10.47-10.47 0-5.783-4.688-10.47-10.47-10.47-5.782 0-10.47 4.687-10.47 10.47 0 5.782 4.688 10.47 10.47 10.47z" stroke="#00A99E" stroke-width="2" stroke-miterlimit="10" stroke-linecap="round" stroke-linejoin="round"/><path d="M610.958 67.204V43.287m-3.389-6.957c0 4.015 3.39 7.269 3.39 7.269s3.39-3.254 3.39-7.269c0-4.014-3.39-7.268-3.39-7.268s-3.39 3.254-3.39 7.268zm7.921 7.899c-3.3 2.283-4.049 6.928-4.049 6.928s4.605.937 7.91-1.346c3.299-2.283 4.048-6.928 4.048-6.928s-4.61-.937-7.909 1.346zm0 10.941c-3.3 2.284-4.049 6.928-4.049 6.928s4.605.937 7.91-1.345c3.299-2.283 4.048-6.928 4.048-6.928s-4.61-.937-7.909 1.346zm-8.581-10.941c3.299 2.283 4.049 6.928 4.049 6.928s-4.605.937-7.91-1.346c-3.299-2.283-4.049-6.928-4.049-6.928s4.611-.937 7.91 1.346zm0 10.941c3.299 2.284 4.049 6.928 4.049 6.928s-4.605.937-7.91-1.345c-3.299-2.283-4.049-6.928-4.049-6.928s4.611-.937 7.91 1.346zm-112.95 12.034V43.287m-3.39-6.957c0 4.015 3.39 7.269 3.39 7.269s3.39-3.254 3.39-7.269c0-4.014-3.39-7.268-3.39-7.268s-3.39 3.254-3.39 7.268zm-.659 7.899c3.299 2.283 4.049 6.928 4.049 6.928s-4.605.937-7.91-1.346C482.75 47.528 482 42.883 482 42.883s4.611-.937 7.91 1.346z" stroke="#00A79E" stroke-width="2.035" stroke-miterlimit="10" stroke-linecap="round" stroke-linejoin="round"/><g clip-path="url(#clip0)" stroke="#00A99E" stroke-width="2" stroke-miterlimit="10" stroke-linecap="round" stroke-linejoin="round"><path d="M1022.14 51.468c-6.68 0-12.14-5.46-12.14-12.14v-23.52c0-6.68 5.46-12.14 12.14-12.14 6.68 0 12.14 5.46 12.14 12.14v23.51c0 6.69-5.46 12.15-12.14 12.15z"/><path d="M1022.33 66.498v-38.93l6.17-4.63m0 8.48l-6.17 4.88m6.17 3.61l-6.17 4.87m-6.17-13.36l6.17 4.88m-6.17 3.61l6.17 4.87m0-17.211v-9.25m-46.28 36.97c-4.98 0-9.05-4.07-9.05-9.05v-17.53c0-4.98 4.07-9.05 9.05-9.05s9.05 4.07 9.05 9.05v17.53c.01 4.98-4.07 9.05-9.05 9.05z"/><path d="M976.2 66.497v-29.03l4.6-3.45m0 6.33l-4.6 3.64m4.6 2.68l-4.6 3.64m-4.6-9.96l4.6 3.64m-4.6 2.68l4.6 3.64m0-12.84v-6.89"/></g><defs><clipPath id="clip0"><path fill="#fff" transform="translate(938 2.667)" d="M0 0h105.82v64.83H0z"/></clipPath></defs></svg>
